Simply-Purple-Circles/scalable/places/user-trash.svg

<svg xmlns="http://www.w3.org/2000/svg" width="48" height="48" viewBox="0 0 12.7 12.7"><path fill="#963996" d="M6.344.073a6.29 6.29 0 0 0-6.29 6.29 6.29 6.29 0 0 0 6.29 6.288 6.29 6.29 0 0 0 6.29-6.289 6.29 6.29 0 0 0-6.29-6.29zm-.018.936a5.407 5.407 0 0 1 5.407 5.407 5.407 5.407 0 0 1-5.407 5.407A5.407 5.407 0 0 1 .92 6.416 5.407 5.407 0 0 1 6.326 1.01z"/><path fill="green" d="M7.612 2.426l-2.437.012c.322-.013.621.279.91.71.259.442.502.9.713 1.39l-.854.49 2.474.238 1.041-2.26-.86.495c-.235-.477-.533-.873-.987-1.075zm-2.445.173h-.122a.506.506 0 0 0-.277.149c-.571.56-.921 1.12-1.207 1.68l1.61.924 1.098-1.54a14.172 14.172 0 0 0-.32-.579c-.142-.21-.415-.583-.697-.63L5.167 2.6zm4.325 2.653l-1.594.95.078.17.01-.014v.034l.636 1.353c.257.009.514.01.772.007.266-.022.761-.082.915-.337l.015-.026.062-.112a.506.506 0 0 0-.021-.15c-.209-.772-.526-1.35-.873-1.875zm-5.344.265l-2.448.45.9.418c-.254.466-.405.938-.312 1.424.47.664.941 1.326 1.413 1.988-.195-.256-.128-.669.057-1.154.214-.464.448-.927.727-1.382l.893.416-1.23-2.16zm3.681 1.35l-1.418 2.04 1.46 2.016-.009-.992c.53.03 1.021-.038 1.421-.332l1.185-2.13c-.15.285-.551.403-1.068.445-.512.009-1.03-.006-1.56-.062l-.01-.985zM4.224 8.055c-.111.214-.216.431-.317.652-.096.25-.255.724-.092.972l.018.025.077.108a.468.468 0 0 0 .21.082c.786.147 1.445.109 2.068.022l-.172-1.848-1.792-.013z" opacity=".75"/></svg>

<?xml version="1.0" encoding="UTF-8" standalone="no"?>
<svg
   xmlns:dc="http://purl.org/dc/elements/1.1/"
   xmlns:cc="http://creativecommons.org/ns#"
   xmlns:rdf="http://www.w3.org/1999/02/22-rdf-syntax-ns#"
   xmlns:svg="http://www.w3.org/2000/svg"
   xmlns="http://www.w3.org/2000/svg"
   xmlns:sodipodi="http://sodipodi.sourceforge.net/DTD/sodipodi-0.dtd"
   xmlns:inkscape="http://www.inkscape.org/namespaces/inkscape"
   width="48"
   height="48"
   viewBox="0 0 12.7 12.7"
   version="1.1"
   id="svg6"
   sodipodi:docname="user-trash.svg"
   inkscape:version="0.92.4 (5da689c313, 2019-01-14)">
  <metadata
     id="metadata12">
    <rdf:RDF>
      <cc:Work
         rdf:about="">
        <dc:format>image/svg+xml</dc:format>
        <dc:type
           rdf:resource="http://purl.org/dc/dcmitype/StillImage" />
        <dc:title></dc:title>
      </cc:Work>
    </rdf:RDF>
  </metadata>
  <defs
     id="defs10" />
  <sodipodi:namedview
     pagecolor="#ffffff"
     bordercolor="#666666"
     borderopacity="1"
     objecttolerance="10"
     gridtolerance="10"
     guidetolerance="10"
     inkscape:pageopacity="0"
     inkscape:pageshadow="2"
     inkscape:window-width="1085"
     inkscape:window-height="480"
     id="namedview8"
     showgrid="false"
     inkscape:zoom="4.9166667"
     inkscape:cx="2.1355932"
     inkscape:cy="24"
     inkscape:window-x="0"
     inkscape:window-y="25"
     inkscape:window-maximized="0"
     inkscape:current-layer="svg6" />
  <path
     d="m 6.344,0.073 a 6.29,6.29 0 0 0 -6.29,6.29 6.29,6.29 0 0 0 6.29,6.288 6.29,6.29 0 0 0 6.29,-6.289 6.29,6.29 0 0 0 -6.29,-6.29 z M 6.326,1.009 A 5.407,5.407 0 0 1 11.733,6.416 5.407,5.407 0 0 1 6.326,11.823 5.407,5.407 0 0 1 0.92000003,6.416 5.407,5.407 0 0 1 6.326,1.01 Z"
     id="path2"
     inkscape:connector-curvature="0"
     style="fill:#963996" />
  <path
     d="M 7.612,2.426 5.175,2.438 c 0.322,-0.013 0.621,0.279 0.91,0.71 0.259,0.442 0.502,0.9 0.713,1.39 L 5.944,5.028 8.418,5.266 9.459,3.006 8.599,3.501 C 8.364,3.024 8.066,2.628 7.612,2.426 Z M 5.167,2.599 H 5.045 A 0.506,0.506 0 0 0 4.768,2.748 c -0.571,0.56 -0.921,1.12 -1.207,1.68 l 1.61,0.924 1.098,-1.54 A 14.172,14.172 0 0 0 5.949,3.233 C 5.807,3.023 5.534,2.65 5.252,2.603 L 5.167,2.6 Z M 9.4920003,5.252 7.898,6.202 7.976,6.372 7.986,6.358 V 6.392 L 8.622,7.745 C 8.879,7.754 9.136,7.755 9.394,7.752 9.6600003,7.73 10.155,7.67 10.309,7.415 L 10.324,7.389 10.386,7.277 A 0.506,0.506 0 0 0 10.365,7.127 C 10.156,6.355 9.8390003,5.777 9.4920003,5.252 Z M 4.148,5.517 1.7,5.967 2.6,6.385 C 2.346,6.851 2.195,7.323 2.288,7.809 2.758,8.473 3.229,9.135 3.701,9.797 3.506,9.541 3.573,9.128 3.758,8.643 3.972,8.179 4.206,7.716 4.485,7.261 l 0.893,0.416 z m 3.681,1.35 -1.418,2.04 1.46,2.016 -0.009,-0.992 c 0.53,0.03 1.021,-0.038 1.421,-0.332 l 1.185,-2.13 C 10.318,7.754 9.9170003,7.872 9.4,7.914 8.888,7.923 8.37,7.908 7.84,7.852 L 7.83,6.867 Z M 4.224,8.055 C 4.113,8.269 4.008,8.486 3.907,8.707 3.811,8.957 3.652,9.431 3.815,9.679 L 3.833,9.704 3.91,9.812 a 0.468,0.468 0 0 0 0.21,0.082 c 0.786,0.147 1.445,0.109 2.068,0.022 L 6.016,8.068 Z"
     id="path4"
     inkscape:connector-curvature="0"
     style="opacity:0.75;fill:#008000" />
</svg>
